X:1
T:Title
%%score ( 1 2 ) { 3 | 4 }
L:1/8
Q:1/4=105
M:4/4
K:G
V:1 treble nm="Grand Piano, Treble Clef"
V:2 treble 
V:3 treble nm="Choir Pad, Long, Long Ago"
V:4 bass 
V:1
 G2 G[FA] [GB]2 [GB][Fc] | [Gd]2 ed [GB]4 | [Bd]2 [Ac][GB] [FA]4 | [Fc]2 BA G4 | %4
w: By~Thomas~Haynes~Bayly~(1797\-1839) * * * * *||||
 G2 G[FA] [GB]2 [GB][Fc] | [Gd]2 ed [GB]4 | [Bd]2 [Ac][GB] [FA]4 | [Fc]2 BA G4 | %8
w: ||||
 [Bd]2 [Ac][GB] [FA]2 DD | [Fc]2 BA G4 | [Gd]2 [Fc][GB] [FA]2 DD | [Fc]2 BA G4 | %12
w: ||||
 G2 G[FA] [GB]2 [GB][Fc] | [Gd]2 ed [GB]4 | [=Fd]2 cB A2 G2 | [Fc]2 BA G4- | G4 z4 |] %17
w: |||||
V:2
 x8 | z2 G2 z4 | x8 | z2 F2 z4 | x8 | z2 G2 z4 | x8 | z2 F2 z4 | x8 | z2 F2 z4 | x8 | z2 F2 z4 | %12
 x8 | z2 G2 z4 | z2 E2 z4 | z2 F2 z4 | x8 |] %17
V:3
 B,2 D2 D4 | D2 CD D4 | D4 D4 | E2 DC B,4 | B,2 D2 D4 | D2 CD D4 | D4 D4 | E2 DC B,4 | D2 D2 D4 | %9
 E2 DC B,4 | D4 D4 | E2 DC[K:bass] B,4 | B,2 B,D D2[K:treble] D2 | D2 CD D4 | B,2 CD E4 | %15
 E2 DC B,4- | B,4 z4 |] %17
V:4
 G,2 B,,D, G,2 G,A, | B,2 z B, G,4 | G,2 F,G, D,4 | D,2 D,2 G,4 | G,2 B,,D, G,2 G,A, | %5
 B,2 z B, G,4 | G,2 F,G, D,4 | D,2 D,2 G,4 | G,2 F,G, D,2 D,2 | D,2 D,2 G,4 | B,2 A,G, D,2 D,2 | %11
 D,4 G,4 | G,2 E,D, G,2 G,A, | B,2 z B, G,4 | ^G,2 A,B, C2 A,2 | D,2 D,2 G,4- | G,4 z4 |] %17

